!! 00000] TT[WS
!!!OTL: Dabianzi yirao li heotao
!!!ARE: Asia, China,ÿShanxi Hequ
!! Ethnic Group: Han
!! WI, 32 (1)
!!!SCT: J0034
!!!YEM: Copyright 1995, estate of Helmut Schaffrath.
**kern
*ICvox
*Ivox
*M2/4
*k[f#c#g#d#]
*E:
{4b
8.gg#
16bb
=1
8ee
8ee
8cc#
8b
=2
8ee
8g#
8f#
16e
16c#
=3
2f#}
=4
{4b
8.gg#
16bb
=5
8ee
8ee
8cc#
8b
=6
8ee
8g#
8f#
16e
16c#
=7
2B}
==
!!!AGN: Shange, Shanqu. Qingge
!!!ONB: ESAC (Essen Associative Code) Database: CHINA
!!!AMT: simple duple
!!!AIN: vox
!!!EED: Helmut Schaffrath
!!!EEV: 1.0
*-
